X: 57
T:Roxburgh Castle
% Nottingham Music Database
S:Kevin Briggs
M:4/4
L:1/8
R:Hornpipe
K:A
cB|"A"AGAc ecAc|"D"dcdf "A"ecAc|"D"d2 f/3e/3d/3 "A"c2a2|"Bm"B2Bc "E7"BdcB|
"A"AGAc ecAc|"D"dcdf "A"ec A/3c/3e/3|"A"agaf "E7"edcB|"A"c2A2 A2:|:
e2|"A"aece fece|"A"aece fece|"D"d2b2 "A"c2a2|"Bm"B2Bc "E7"BdcB|
"A"AGAc ecAc|"D"dcdf "A"ec A/3c/3e/3|"A"agaf "E7"edcB|"A"c2A2 A2:|


